( Generated by Universal Toolpath Design Environment )
( Machine: DED_5axis )
( Toolpath: ded_weld_job )
( Points: 1075, Length: 1252.3mm )
%
O1001
G90
G21
G17
G40
G54
G43.4 H1


( Toolpath: rapid_to_home )
G0 X0.000 Y0.000 Z300.000

( Toolpath: rapid_to_approach )
G0 X50.000 Y0.000 Z150.000

( Toolpath: follow_helix_resampled )
G1 X40.000 Y0.000 Z0.000 F600 S2000 E3
G1 X39.956 Y0.999 Z0.020 S2000 E3
G1 X39.913 Y1.998 Z0.040 S2000 E3
G1 X39.869 Y2.997 Z0.060 S2000 E3
G1 X39.781 Y3.992 Z0.080 S2000 E3
G1 X39.651 Y4.984 Z0.100 S2000 E3
G1 X39.520 Y5.975 Z0.119 S2000 E3
G1 X39.388 Y6.966 Z0.139 S2000 E3
G1 X39.171 Y7.943 Z0.159 S2000 E3
G1 X38.955 Y8.919 Z0.179 S2000 E3
G1 X38.738 Y9.895 Z0.199 S2000 E3
G1 X38.477 Y10.859 Z0.219 S2000 E3
G1 X38.177 Y11.813 Z0.239 S2000 E3
G1 X37.876 Y12.767 Z0.259 S2000 E3
G1 X37.572 Y13.719 Z0.279 S2000 E3
G1 X37.189 Y14.643 Z0.299 S2000 E3
G1 X36.806 Y15.567 Z0.318 S2000 E3
G1 X36.424 Y16.491 Z0.338 S2000 E3
G1 X35.997 Y17.394 Z0.358 S2000 E3
G1 X35.536 Y18.281 Z0.378 S2000 E3
G1 X35.074 Y19.168 Z0.398 S2000 E3
G1 X34.607 Y20.053 Z0.418 S2000 E3
G1 X34.070 Y20.896 Z0.438 S2000 E3
G1 X33.533 Y21.739 Z0.458 S2000 E3
G1 X32.996 Y22.583 Z0.478 S2000 E3
G1 X32.417 Y23.398 Z0.498 S2000 E3
G1 X31.809 Y24.191 Z0.517 S2000 E3
G1 X31.200 Y24.984 Z0.537 S2000 E3
G1 X30.585 Y25.773 Z0.557 S2000 E3
G1 X29.910 Y26.510 Z0.577 S2000 E3
G1 X29.234 Y27.247 Z0.597 S2000 E3
G1 X28.559 Y27.985 Z0.617 S2000 E3
G1 X27.847 Y28.685 Z0.637 S2000 E3
G1 X27.109 Y29.361 Z0.657 S2000 E3
G1 X26.372 Y30.037 Z0.677 S2000 E3
G1 X25.629 Y30.705 Z0.697 S2000 E3
G1 X24.836 Y31.314 Z0.716 S2000 E3
G1 X24.042 Y31.923 Z0.736 S2000 E3
G1 X23.249 Y32.531 Z0.756 S2000 E3
G1 X22.425 Y33.096 Z0.776 S2000 E3
G1 X21.581 Y33.634 Z0.796 S2000 E3
G1 X20.738 Y34.171 Z0.816 S2000 E3
G1 X19.889 Y34.699 Z0.836 S2000 E3
G1 X19.002 Y35.160 Z0.856 S2000 E3
G1 X18.115 Y35.622 Z0.876 S2000 E3
G1 X17.228 Y36.084 Z0.896 S2000 E3
G1 X16.318 Y36.495 Z0.915 S2000 E3
G1 X15.394 Y36.878 Z0.935 S2000 E3
G1 X14.470 Y37.261 Z0.955 S2000 E3
G1 X13.542 Y37.632 Z0.975 S2000 E3
G1 X12.588 Y37.932 Z0.995 S2000 E3
G1 X11.634 Y38.233 Z1.015 S2000 E3
G1 X10.681 Y38.534 Z1.035 S2000 E3
G1 X9.712 Y38.779 Z1.055 S2000 E3
G1 X8.736 Y38.996 Z1.075 S2000 E3
G1 X7.759 Y39.212 Z1.095 S2000 E3
G1 X6.781 Y39.414 Z1.114 S2000 E3
G1 X5.789 Y39.545 Z1.134 S2000 E3
G1 X4.798 Y39.675 Z1.154 S2000 E3
G1 X3.806 Y39.806 Z1.174 S2000 E3
G1 X2.810 Y39.877 Z1.194 S2000 E3
G1 X1.811 Y39.921 Z1.214 S2000 E3
G1 X0.812 Y39.965 Z1.234 S2000 E3
G1 X-0.187 Y39.992 Z1.254 S2000 E3
G1 X-1.186 Y39.948 Z1.274 S2000 E3
G1 X-2.185 Y39.905 Z1.294 S2000 E3
G1 X-3.184 Y39.861 Z1.313 S2000 E3
G1 X-4.178 Y39.757 Z1.333 S2000 E3
G1 X-5.170 Y39.626 Z1.353 S2000 E3
G1 X-6.161 Y39.496 Z1.373 S2000 E3
G1 X-7.149 Y39.347 Z1.393 S2000 E3
G1 X-8.126 Y39.131 Z1.413 S2000 E3
G1 X-9.102 Y38.914 Z1.433 S2000 E3
G1 X-10.078 Y38.698 Z1.453 S2000 E3
G1 X-11.038 Y38.421 Z1.473 S2000 E3
G1 X-11.992 Y38.120 Z1.493 S2000 E3
G1 X-12.946 Y37.819 Z1.512 S2000 E3
G1 X-13.893 Y37.500 Z1.532 S2000 E3
G1 X-14.816 Y37.117 Z1.552 S2000 E3
G1 X-15.740 Y36.735 Z1.572 S2000 E3
G1 X-16.664 Y36.352 Z1.592 S2000 E3
G1 X-17.561 Y35.911 Z1.612 S2000 E3
G1 X-18.448 Y35.449 Z1.632 S2000 E3
G1 X-19.335 Y34.987 Z1.652 S2000 E3
G1 X-20.211 Y34.507 Z1.672 S2000 E3
G1 X-21.054 Y33.969 Z1.692 S2000 E3
G1 X-21.898 Y33.432 Z1.711 S2000 E3
G1 X-22.741 Y32.895 Z1.731 S2000 E3
G1 X-23.546 Y32.303 Z1.751 S2000 E3
G1 X-24.340 Y31.694 Z1.771 S2000 E3
G1 X-25.133 Y31.086 Z1.791 S2000 E3
G1 X-25.911 Y30.459 Z1.811 S2000 E3
G1 X-26.648 Y29.783 Z1.831 S2000 E3
G1 X-27.386 Y29.108 Z1.851 S2000 E3
G1 X-28.123 Y28.432 Z1.871 S2000 E3
G1 X-28.812 Y27.708 Z1.891 S2000 E3
G1 X-29.488 Y26.971 Z1.910 S2000 E3
G1 X-30.163 Y26.234 Z1.930 S2000 E3
G1 X-30.819 Y25.480 Z1.950 S2000 E3
G1 X-31.428 Y24.687 Z1.970 S2000 E3
G1 X-32.037 Y23.893 Z1.990 S2000 E3
G1 X-32.646 Y23.100 Z2.010 S2000 E3
G1 X-33.197 Y22.267 Z2.030 S2000 E3
G1 X-33.734 Y21.423 Z2.050 S2000 E3
G1 X-34.272 Y20.580 Z2.070 S2000 E3
G1 X-34.785 Y19.723 Z2.090 S2000 E3
G1 X-35.247 Y18.836 Z2.109 S2000 E3
G1 X-35.709 Y17.949 Z2.129 S2000 E3
G1 X-36.171 Y17.062 Z2.149 S2000 E3
G1 X-36.567 Y16.144 Z2.169 S2000 E3
G1 X-36.950 Y15.221 Z2.189 S2000 E3
G1 X-37.333 Y14.297 Z2.209 S2000 E3
G1 X-37.688 Y13.363 Z2.229 S2000 E3
G1 X-37.989 Y12.409 Z2.249 S2000 E3
G1 X-38.289 Y11.455 Z2.269 S2000 E3
G1 X-38.590 Y10.502 Z2.289 S2000 E3
G1 X-38.820 Y9.529 Z2.308 S2000 E3
G1 X-39.036 Y8.553 Z2.328 S2000 E3
G1 X-39.253 Y7.576 Z2.348 S2000 E3
G1 X-39.439 Y6.595 Z2.368 S2000 E3
G1 X-39.569 Y5.603 Z2.388 S2000 E3
G1 X-39.700 Y4.612 Z2.408 S2000 E3
G1 X-39.830 Y3.620 Z2.428 S2000 E3
G1 X-39.886 Y2.622 Z2.448 S2000 E3
G1 X-39.929 Y1.623 Z2.468 S2000 E3
G1 X-39.973 Y0.624 Z2.488 S2000 E3
G1 X-39.984 Y-0.375 Z2.507 S2000 E3
G1 X-39.940 Y-1.374 Z2.527 S2000 E3
G1 X-39.896 Y-2.373 Z2.547 S2000 E3
G1 X-39.853 Y-3.372 Z2.567 S2000 E3
G1 X-39.732 Y-4.364 Z2.587 S2000 E3
G1 X-39.602 Y-5.355 Z2.607 S2000 E3
G1 X-39.471 Y-6.347 Z2.627 S2000 E3
G1 X-39.307 Y-7.332 Z2.647 S2000 E3
G1 X-39.090 Y-8.309 Z2.667 S2000 E3
G1 X-38.874 Y-9.285 Z2.687 S2000 E3
G1 X-38.657 Y-10.261 Z2.706 S2000 E3
G1 X-38.365 Y-11.217 Z2.726 S2000 E3
G1 X-38.064 Y-12.171 Z2.746 S2000 E3
G1 X-37.763 Y-13.124 Z2.766 S2000 E3
G1 X-37.428 Y-14.066 Z2.786 S2000 E3
G1 X-37.046 Y-14.990 Z2.806 S2000 E3
G1 X-36.663 Y-15.913 Z2.826 S2000 E3
G1 X-36.280 Y-16.837 Z2.846 S2000 E3
G1 X-35.824 Y-17.727 Z2.866 S2000 E3
G1 X-35.362 Y-18.614 Z2.886 S2000 E3
G1 X-34.901 Y-19.501 Z2.905 S2000 E3
G1 X-34.406 Y-20.369 Z2.925 S2000 E3
G1 X-33.869 Y-21.212 Z2.945 S2000 E3
G1 X-33.331 Y-22.056 Z2.965 S2000 E3
G1 X-32.794 Y-22.899 Z2.985 S2000 E3
G1 X-32.189 Y-23.695 Z3.005 S2000 E3
G1 X-31.580 Y-24.488 Z3.025 S2000 E3
G1 X-30.972 Y-25.282 Z3.045 S2000 E3
G1 X-30.332 Y-26.049 Z3.065 S2000 E3
G1 X-29.657 Y-26.787 Z3.085 S2000 E3
G1 X-28.981 Y-27.524 Z3.104 S2000 E3
G1 X-28.305 Y-28.261 Z3.124 S2000 E3
G1 X-27.570 Y-28.939 Z3.144 S2000 E3
G1 X-26.833 Y-29.614 Z3.164 S2000 E3
G1 X-26.095 Y-30.290 Z3.184 S2000 E3
G1 X-25.331 Y-30.933 Z3.204 S2000 E3
G1 X-24.538 Y-31.542 Z3.224 S2000 E3
G1 X-23.745 Y-32.151 Z3.244 S2000 E3
G1 X-22.951 Y-32.760 Z3.264 S2000 E3
G1 X-22.108 Y-33.298 Z3.284 S2000 E3
G1 X-21.265 Y-33.835 Z3.303 S2000 E3
G1 X-20.422 Y-34.372 Z3.323 S2000 E3
G1 X-19.556 Y-34.872 Z3.343 S2000 E3
G1 X-18.669 Y-35.334 Z3.363 S2000 E3
G1 X-17.782 Y-35.795 Z3.383 S2000 E3
G1 X-16.895 Y-36.256 Z3.403 S2000 E3
G1 X-15.971 Y-36.639 Z3.423 S2000 E3
G1 X-15.047 Y-37.022 Z3.443 S2000 E3
G1 X-14.123 Y-37.404 Z3.463 S2000 E3
G1 X-13.184 Y-37.744 Z3.483 S2000 E3
G1 X-12.230 Y-38.045 Z3.502 S2000 E3
G1 X-11.277 Y-38.346 Z3.522 S2000 E3
G1 X-10.322 Y-38.644 Z3.542 S2000 E3
G1 X-9.346 Y-38.860 Z3.562 S2000 E3
G1 X-8.370 Y-39.077 Z3.582 S2000 E3
G1 X-7.393 Y-39.293 Z3.602 S2000 E3
G1 X-6.409 Y-39.463 Z3.622 S2000 E3
G1 X-5.417 Y-39.594 Z3.642 S2000 E3
G1 X-4.426 Y-39.724 Z3.662 S2000 E3
G1 X-3.434 Y-39.850 Z3.682 S2000 E3
G1 X-2.435 Y-39.894 Z3.701 S2000 E3
G1 X-1.436 Y-39.937 Z3.721 S2000 E3
G1 X-0.437 Y-39.981 Z3.741 S2000 E3
G1 X0.562 Y-39.975 Z3.761 S2000 E3
G1 X1.561 Y-39.932 Z3.781 S2000 E3
G1 X2.560 Y-39.888 Z3.801 S2000 E3
G1 X3.559 Y-39.838 Z3.821 S2000 E3
G1 X4.550 Y-39.708 Z3.841 S2000 E3
G1 X5.541 Y-39.577 Z3.861 S2000 E3
G1 X6.533 Y-39.447 Z3.881 S2000 E3
G1 X7.515 Y-39.266 Z3.900 S2000 E3
G1 X8.492 Y-39.050 Z3.920 S2000 E3
G1 X9.468 Y-38.833 Z3.940 S2000 E3
G1 X10.442 Y-38.609 Z3.960 S2000 E3
G1 X11.396 Y-38.308 Z3.980 S2000 E3
G1 X12.350 Y-38.007 Z4.000 S2000 E3
G1 X13.303 Y-37.707 Z4.020 S2000 E3
G1 X14.239 Y-37.357 Z4.040 S2000 E3
G1 X15.163 Y-36.974 Z4.060 S2000 E3
G1 X16.087 Y-36.591 Z4.080 S2000 E3
G1 X17.006 Y-36.199 Z4.100 S2000 E3
G1 X17.893 Y-35.738 Z4.119 S2000 E3
G1 X18.780 Y-35.276 Z4.139 S2000 E3
G1 X19.667 Y-34.814 Z4.159 S2000 E3
G1 X20.527 Y-34.305 Z4.179 S2000 E3
G1 X21.370 Y-33.768 Z4.199 S2000 E3
G1 X22.214 Y-33.231 Z4.219 S2000 E3
G1 X23.050 Y-32.684 Z4.239 S2000 E3
G1 X23.844 Y-32.075 Z4.259 S2000 E3
G1 X24.637 Y-31.466 Z4.279 S2000 E3
G1 X25.431 Y-30.857 Z4.299 S2000 E3
G1 X26.188 Y-30.205 Z4.318 S2000 E3
G1 X26.925 Y-29.530 Z4.338 S2000 E3
G1 X27.662 Y-28.854 Z4.358 S2000 E3
G1 X28.390 Y-28.169 Z4.378 S2000 E3
G1 X29.065 Y-27.432 Z4.398 S2000 E3
G1 X29.741 Y-26.695 Z4.418 S2000 E3
G1 X30.417 Y-25.957 Z4.438 S2000 E3
G1 X31.048 Y-25.183 Z4.458 S2000 E3
G1 X31.656 Y-24.389 Z4.478 S2000 E3
G1 X32.265 Y-23.596 Z4.498 S2000 E3
G1 X32.861 Y-22.794 Z4.517 S2000 E3
G1 X33.399 Y-21.950 Z4.537 S2000 E3
G1 X33.936 Y-21.107 Z4.557 S2000 E3
G1 X34.473 Y-20.264 Z4.577 S2000 E3
G1 X34.958 Y-19.390 Z4.597 S2000 E3
G1 X35.420 Y-18.503 Z4.617 S2000 E3
G1 X35.882 Y-17.616 Z4.637 S2000 E3
G1 X36.328 Y-16.722 Z4.657 S2000 E3
G1 X36.711 Y-15.798 Z4.677 S2000 E3
G1 X37.093 Y-14.874 Z4.697 S2000 E3
G1 X37.476 Y-13.950 Z4.716 S2000 E3
G1 X37.801 Y-13.005 Z4.736 S2000 E3
G1 X38.101 Y-12.052 Z4.756 S2000 E3
G1 X38.402 Y-11.098 Z4.776 S2000 E3
G1 X38.684 Y-10.139 Z4.796 S2000 E3
G1 X38.901 Y-9.163 Z4.816 S2000 E3
G1 X39.117 Y-8.187 Z4.836 S2000 E3
G1 X39.334 Y-7.210 Z4.856 S2000 E3
G1 X39.487 Y-6.223 Z4.876 S2000 E3
G1 X39.618 Y-5.232 Z4.896 S2000 E3
G1 X39.749 Y-4.240 Z4.915 S2000 E3
G1 X39.858 Y-3.247 Z4.935 S2000 E3
G1 X39.902 Y-2.248 Z4.955 S2000 E3
G1 X39.945 Y-1.249 Z4.975 S2000 E3
G1 X39.989 Y-0.250 Z4.995 S2000 E3
G1 X39.967 Y0.749 Z5.015 S2000 E3
G1 X39.924 Y1.748 Z5.035 S2000 E3
G1 X39.880 Y2.747 Z5.055 S2000 E3
G1 X39.814 Y3.744 Z5.075 S2000 E3
G1 X39.683 Y4.736 Z5.095 S2000 E3
G1 X39.553 Y5.727 Z5.114 S2000 E3
G1 X39.422 Y6.719 Z5.134 S2000 E3
G1 X39.225 Y7.698 Z5.154 S2000 E3
G1 X39.009 Y8.675 Z5.174 S2000 E3
G1 X38.793 Y9.651 Z5.194 S2000 E3
G1 X38.552 Y10.621 Z5.214 S2000 E3
G1 X38.252 Y11.575 Z5.234 S2000 E3
G1 X37.951 Y12.528 Z5.254 S2000 E3
G1 X37.650 Y13.482 Z5.274 S2000 E3
G1 X37.285 Y14.412 Z5.294 S2000 E3
G1 X36.902 Y15.336 Z5.313 S2000 E3
G1 X36.519 Y16.260 Z5.333 S2000 E3
G1 X36.113 Y17.173 Z5.353 S2000 E3
G1 X35.651 Y18.060 Z5.373 S2000 E3
G1 X35.189 Y18.947 Z5.393 S2000 E3
G1 X34.728 Y19.834 Z5.413 S2000 E3
G1 X34.204 Y20.685 Z5.433 S2000 E3
G1 X33.667 Y21.529 Z5.453 S2000 E3
G1 X33.130 Y22.372 Z5.473 S2000 E3
G1 X32.570 Y23.199 Z5.493 S2000 E3
G1 X31.961 Y23.993 Z5.512 S2000 E3
G1 X31.352 Y24.786 Z5.532 S2000 E3
G1 X30.743 Y25.579 Z5.552 S2000 E3
G1 X30.079 Y26.326 Z5.572 S2000 E3
G1 X29.403 Y27.063 Z5.592 S2000 E3
G1 X28.728 Y27.800 Z5.612 S2000 E3
G1 X28.031 Y28.517 Z5.632 S2000 E3
G1 X27.294 Y29.192 Z5.652 S2000 E3
G1 X26.556 Y29.868 Z5.672 S2000 E3
G1 X25.819 Y30.543 Z5.692 S2000 E3
G1 X25.034 Y31.162 Z5.711 S2000 E3
G1 X24.241 Y31.771 Z5.731 S2000 E3
G1 X23.447 Y32.379 Z5.751 S2000 E3
G1 X22.636 Y32.962 Z5.771 S2000 E3
G1 X21.792 Y33.499 Z5.791 S2000 E3
G1 X20.949 Y34.037 Z5.811 S2000 E3
G1 X20.105 Y34.574 Z5.831 S2000 E3
G1 X19.224 Y35.045 Z5.851 S2000 E3
G1 X18.337 Y35.507 Z5.871 S2000 E3
G1 X17.450 Y35.969 Z5.891 S2000 E3
G1 X16.549 Y36.400 Z5.910 S2000 E3
G1 X15.625 Y36.782 Z5.930 S2000 E3
G1 X14.701 Y37.165 Z5.950 S2000 E3
G1 X13.777 Y37.548 Z5.970 S2000 E3
G1 X12.826 Y37.857 Z5.990 S2000 E3
G1 X11.873 Y38.158 Z6.010 S2000 E3
G1 X10.919 Y38.458 Z6.030 S2000 E3
G1 X9.956 Y38.725 Z6.050 S2000 E3
G1 X8.980 Y38.941 Z6.070 S2000 E3
G1 X8.004 Y39.158 Z6.090 S2000 E3
G1 X7.027 Y39.374 Z6.109 S2000 E3
G1 X6.037 Y39.512 Z6.129 S2000 E3
G1 X5.046 Y39.642 Z6.149 S2000 E3
G1 X4.054 Y39.773 Z6.169 S2000 E3
G1 X3.060 Y39.866 Z6.189 S2000 E3
G1 X2.061 Y39.910 Z6.209 S2000 E3
G1 X1.061 Y39.954 Z6.229 S2000 E3
G1 X0.062 Y39.997 Z6.249 S2000 E3
G1 X-0.937 Y39.959 Z6.269 S2000 E3
G1 X-1.936 Y39.915 Z6.289 S2000 E3
G1 X-2.935 Y39.872 Z6.308 S2000 E3
G1 X-3.930 Y39.789 Z6.328 S2000 E3
G1 X-4.922 Y39.659 Z6.348 S2000 E3
G1 X-5.913 Y39.528 Z6.368 S2000 E3
G1 X-6.905 Y39.398 Z6.388 S2000 E3
G1 X-7.882 Y39.185 Z6.408 S2000 E3
G1 X-8.858 Y38.968 Z6.428 S2000 E3
G1 X-9.834 Y38.752 Z6.448 S2000 E3
G1 X-10.800 Y38.496 Z6.468 S2000 E3
G1 X-11.754 Y38.195 Z6.488 S2000 E3
G1 X-12.707 Y37.895 Z6.507 S2000 E3
G1 X-13.661 Y37.594 Z6.527 S2000 E3
G1 X-14.585 Y37.213 Z6.547 S2000 E3
G1 X-15.509 Y36.830 Z6.567 S2000 E3
G1 X-16.433 Y36.448 Z6.587 S2000 E3
G1 X-17.339 Y36.026 Z6.607 S2000 E3
G1 X-18.226 Y35.565 Z6.627 S2000 E3
G1 X-19.113 Y35.103 Z6.647 S2000 E3
G1 X-20.000 Y34.641 Z6.667 S2000 E3
G1 X-20.843 Y34.104 Z6.687 S2000 E3
G1 X-21.687 Y33.566 Z6.706 S2000 E3
G1 X-22.530 Y33.029 Z6.726 S2000 E3
G1 X-23.348 Y32.455 Z6.746 S2000 E3
G1 X-24.141 Y31.847 Z6.766 S2000 E3
G1 X-24.935 Y31.238 Z6.786 S2000 E3
G1 X-25.727 Y30.628 Z6.806 S2000 E3
G1 X-26.464 Y29.952 Z6.826 S2000 E3
G1 X-27.201 Y29.277 Z6.846 S2000 E3
G1 X-27.939 Y28.601 Z6.866 S2000 E3
G1 X-28.643 Y27.893 Z6.886 S2000 E3
G1 X-29.319 Y27.155 Z6.905 S2000 E3
G1 X-29.994 Y26.418 Z6.925 S2000 E3
G1 X-30.667 Y25.678 Z6.945 S2000 E3
G1 X-31.276 Y24.885 Z6.965 S2000 E3
G1 X-31.885 Y24.092 Z6.985 S2000 E3
G1 X-32.493 Y23.298 Z7.005 S2000 E3
G1 X-33.063 Y22.477 Z7.025 S2000 E3
G1 X-33.600 Y21.634 Z7.045 S2000 E3
G1 X-34.137 Y20.791 Z7.065 S2000 E3
G1 X-34.670 Y19.945 Z7.085 S2000 E3
G1 X-35.132 Y19.058 Z7.104 S2000 E3
G1 X-35.593 Y18.171 Z7.124 S2000 E3
G1 X-36.055 Y17.284 Z7.144 S2000 E3
G1 X-36.472 Y16.375 Z7.164 S2000 E3
G1 X-36.854 Y15.452 Z7.184 S2000 E3
G1 X-37.237 Y14.528 Z7.204 S2000 E3
G1 X-37.613 Y13.601 Z7.224 S2000 E3
G1 X-37.913 Y12.648 Z7.244 S2000 E3
G1 X-38.214 Y11.694 Z7.264 S2000 E3
G1 X-38.515 Y10.740 Z7.284 S2000 E3
G1 X-38.766 Y9.773 Z7.303 S2000 E3
G1 X-38.982 Y8.797 Z7.323 S2000 E3
G1 X-39.198 Y7.821 Z7.343 S2000 E3
G1 X-39.406 Y6.843 Z7.363 S2000 E3
G1 X-39.536 Y5.851 Z7.383 S2000 E3
G1 X-39.667 Y4.860 Z7.403 S2000 E3
G1 X-39.797 Y3.868 Z7.423 S2000 E3
G1 X-39.875 Y2.872 Z7.443 S2000 E3
G1 X-39.918 Y1.873 Z7.463 S2000 E3
G1 X-39.962 Y0.874 Z7.483 S2000 E3
G1 X-39.995 Y-0.125 Z7.502 S2000 E3
G1 X-39.951 Y-1.124 Z7.522 S2000 E3
G1 X-39.907 Y-2.123 Z7.542 S2000 E3
G1 X-39.864 Y-3.122 Z7.562 S2000 E3
G1 X-39.765 Y-4.116 Z7.582 S2000 E3
G1 X-39.634 Y-5.108 Z7.602 S2000 E3
G1 X-39.504 Y-6.099 Z7.622 S2000 E3
G1 X-39.361 Y-7.088 Z7.642 S2000 E3
G1 X-39.144 Y-8.065 Z7.662 S2000 E3
G1 X-38.928 Y-9.041 Z7.682 S2000 E3
G1 X-38.711 Y-10.017 Z7.701 S2000 E3
G1 X-38.440 Y-10.979 Z7.721 S2000 E3
G1 X-38.139 Y-11.932 Z7.741 S2000 E3
G1 X-37.838 Y-12.886 Z7.761 S2000 E3
G1 X-37.524 Y-13.835 Z7.781 S2000 E3
G1 X-37.141 Y-14.759 Z7.801 S2000 E3
G1 X-36.759 Y-15.683 Z7.821 S2000 E3
G1 X-36.376 Y-16.606 Z7.841 S2000 E3
G1 X-35.940 Y-17.505 Z7.861 S2000 E3
G1 X-35.478 Y-18.392 Z7.881 S2000 E3
G1 X-35.016 Y-19.279 Z7.900 S2000 E3
G1 X-34.540 Y-20.158 Z7.920 S2000 E3
G1 X-34.003 Y-21.002 Z7.940 S2000 E3
G1 X-33.466 Y-21.845 Z7.960 S2000 E3
G1 X-32.928 Y-22.688 Z7.980 S2000 E3
G1 X-32.341 Y-23.497 Z8.000 S2000 E3
G1 X-31.732 Y-24.290 Z8.020 S2000 E3
G1 X-31.124 Y-25.083 Z8.040 S2000 E3
G1 X-30.501 Y-25.865 Z8.060 S2000 E3
G1 X-29.825 Y-26.602 Z8.080 S2000 E3
G1 X-29.150 Y-27.340 Z8.100 S2000 E3
G1 X-28.474 Y-28.077 Z8.119 S2000 E3
G1 X-27.754 Y-28.770 Z8.139 S2000 E3
G1 X-27.017 Y-29.445 Z8.159 S2000 E3
G1 X-26.280 Y-30.121 Z8.179 S2000 E3
G1 X-25.530 Y-30.781 Z8.199 S2000 E3
G1 X-24.736 Y-31.390 Z8.219 S2000 E3
G1 X-23.943 Y-31.999 Z8.239 S2000 E3
G1 X-23.150 Y-32.608 Z8.259 S2000 E3
G1 X-22.319 Y-33.163 Z8.279 S2000 E3
G1 X-21.476 Y-33.701 Z8.299 S2000 E3
G1 X-20.633 Y-34.238 Z8.318 S2000 E3
G1 X-19.778 Y-34.756 Z8.338 S2000 E3
G1 X-18.891 Y-35.218 Z8.358 S2000 E3
G1 X-18.004 Y-35.680 Z8.378 S2000 E3
G1 X-17.117 Y-36.142 Z8.398 S2000 E3
G1 X-16.202 Y-36.543 Z8.418 S2000 E3
G1 X-15.278 Y-36.926 Z8.438 S2000 E3
G1 X-14.354 Y-37.309 Z8.458 S2000 E3
G1 X-13.423 Y-37.669 Z8.478 S2000 E3
G1 X-12.469 Y-37.970 Z8.498 S2000 E3
G1 X-11.515 Y-38.271 Z8.517 S2000 E3
G1 X-10.561 Y-38.571 Z8.537 S2000 E3
G1 X-9.590 Y-38.806 Z8.557 S2000 E3
G1 X-8.614 Y-39.023 Z8.577 S2000 E3
G1 X-7.637 Y-39.239 Z8.597 S2000 E3
G1 X-6.657 Y-39.430 Z8.617 S2000 E3
G1 X-5.665 Y-39.561 Z8.637 S2000 E3
G1 X-4.674 Y-39.691 Z8.657 S2000 E3
G1 X-3.682 Y-39.822 Z8.677 S2000 E3
G1 X-2.685 Y-39.883 Z8.697 S2000 E3
G1 X-1.686 Y-39.926 Z8.716 S2000 E3
G1 X-0.687 Y-39.970 Z8.736 S2000 E3
G1 X0.312 Y-39.986 Z8.756 S2000 E3
G1 X1.311 Y-39.943 Z8.776 S2000 E3
G1 X2.310 Y-39.899 Z8.796 S2000 E3
G1 X3.309 Y-39.856 Z8.816 S2000 E3
G1 X4.302 Y-39.740 Z8.836 S2000 E3
G1 X5.294 Y-39.610 Z8.856 S2000 E3
G1 X6.285 Y-39.479 Z8.876 S2000 E3
G1 X7.271 Y-39.320 Z8.896 S2000 E3
G1 X8.248 Y-39.104 Z8.915 S2000 E3
G1 X9.224 Y-38.887 Z8.935 S2000 E3
G1 X10.200 Y-38.671 Z8.955 S2000 E3
G1 X11.157 Y-38.383 Z8.975 S2000 E3
G1 X12.111 Y-38.083 Z8.995 S2000 E3
G1 X13.065 Y-37.782 Z9.015 S2000 E3
G1 X14.008 Y-37.452 Z9.035 S2000 E3
G1 X14.932 Y-37.069 Z9.055 S2000 E3
G1 X15.856 Y-36.687 Z9.075 S2000 E3
G1 X16.780 Y-36.304 Z9.095 S2000 E3
G1 X17.672 Y-35.853 Z9.114 S2000 E3
G1 X18.559 Y-35.391 Z9.134 S2000 E3
G1 X19.446 Y-34.930 Z9.154 S2000 E3
G1 X20.316 Y-34.440 Z9.174 S2000 E3
G1 X21.160 Y-33.902 Z9.194 S2000 E3
G1 X22.003 Y-33.365 Z9.214 S2000 E3
G1 X22.846 Y-32.828 Z9.234 S2000 E3
G1 X23.645 Y-32.227 Z9.254 S2000 E3
G1 X24.439 Y-31.618 Z9.274 S2000 E3
G1 X25.232 Y-31.010 Z9.294 S2000 E3
G1 X26.003 Y-30.374 Z9.313 S2000 E3
G1 X26.741 Y-29.699 Z9.333 S2000 E3
G1 X27.478 Y-29.023 Z9.353 S2000 E3
G1 X28.215 Y-28.348 Z9.373 S2000 E3
G1 X28.897 Y-27.616 Z9.393 S2000 E3
G1 X29.572 Y-26.879 Z9.413 S2000 E3
G1 X30.248 Y-26.142 Z9.433 S2000 E3
G1 X30.895 Y-25.381 Z9.453 S2000 E3
G1 X31.504 Y-24.588 Z9.473 S2000 E3
G1 X32.113 Y-23.794 Z9.493 S2000 E3
G1 X32.722 Y-23.001 Z9.512 S2000 E3
G1 X33.264 Y-22.161 Z9.532 S2000 E3
G1 X33.801 Y-21.318 Z9.552 S2000 E3
G1 X34.339 Y-20.474 Z9.572 S2000 E3
G1 X34.843 Y-19.612 Z9.592 S2000 E3
G1 X35.305 Y-18.725 Z9.612 S2000 E3
G1 X35.767 Y-17.838 Z9.632 S2000 E3
G1 X36.228 Y-16.951 Z9.652 S2000 E3
G1 X36.615 Y-16.029 Z9.672 S2000 E3
G1 X36.998 Y-15.105 Z9.692 S2000 E3
G1 X37.380 Y-14.181 Z9.711 S2000 E3
G1 X37.726 Y-13.244 Z9.731 S2000 E3
G1 X38.026 Y-12.290 Z9.751 S2000 E3
G1 X38.327 Y-11.336 Z9.771 S2000 E3
G1 X38.628 Y-10.383 Z9.791 S2000 E3
G1 X38.847 Y-9.407 Z9.811 S2000 E3
G1 X39.063 Y-8.431 Z9.831 S2000 E3
G1 X39.280 Y-7.454 Z9.851 S2000 E3
G1 X39.455 Y-6.471 Z9.871 S2000 E3
G1 X39.585 Y-5.479 Z9.891 S2000 E3
G1 X39.716 Y-4.488 Z9.910 S2000 E3
G1 X39.846 Y-3.497 Z9.930 S2000 E3
G1 X39.891 Y-2.498 Z9.950 S2000 E3
G1 X39.935 Y-1.499 Z9.970 S2000 E3
G1 X39.978 Y-0.500 Z9.990 S2000 E3
G1 Y0.500 Z10.010 S2000 E3
G1 X39.935 Y1.499 Z10.030 S2000 E3
G1 X39.891 Y2.498 Z10.050 S2000 E3
G1 X39.846 Y3.497 Z10.070 S2000 E3
G1 X39.716 Y4.488 Z10.090 S2000 E3
G1 X39.585 Y5.479 Z10.109 S2000 E3
G1 X39.455 Y6.471 Z10.129 S2000 E3
G1 X39.280 Y7.454 Z10.149 S2000 E3
G1 X39.063 Y8.431 Z10.169 S2000 E3
G1 X38.847 Y9.407 Z10.189 S2000 E3
G1 X38.628 Y10.383 Z10.209 S2000 E3
G1 X38.327 Y11.336 Z10.229 S2000 E3
G1 X38.026 Y12.290 Z10.249 S2000 E3
G1 X37.726 Y13.244 Z10.269 S2000 E3
G1 X37.380 Y14.181 Z10.289 S2000 E3
G1 X36.998 Y15.105 Z10.308 S2000 E3
G1 X36.615 Y16.029 Z10.328 S2000 E3
G1 X36.228 Y16.951 Z10.348 S2000 E3
G1 X35.767 Y17.838 Z10.368 S2000 E3
G1 X35.305 Y18.725 Z10.388 S2000 E3
G1 X34.843 Y19.612 Z10.408 S2000 E3
G1 X34.339 Y20.474 Z10.428 S2000 E3
G1 X33.801 Y21.318 Z10.448 S2000 E3
G1 X33.264 Y22.161 Z10.468 S2000 E3
G1 X32.722 Y23.001 Z10.488 S2000 E3
G1 X32.113 Y23.794 Z10.507 S2000 E3
G1 X31.504 Y24.588 Z10.527 S2000 E3
G1 X30.895 Y25.381 Z10.547 S2000 E3
G1 X30.248 Y26.142 Z10.567 S2000 E3
G1 X29.572 Y26.879 Z10.587 S2000 E3
G1 X28.897 Y27.616 Z10.607 S2000 E3
G1 X28.215 Y28.348 Z10.627 S2000 E3
G1 X27.478 Y29.023 Z10.647 S2000 E3
G1 X26.741 Y29.699 Z10.667 S2000 E3
G1 X26.003 Y30.374 Z10.687 S2000 E3
G1 X25.232 Y31.010 Z10.706 S2000 E3
G1 X24.439 Y31.618 Z10.726 S2000 E3
G1 X23.645 Y32.227 Z10.746 S2000 E3
G1 X22.846 Y32.828 Z10.766 S2000 E3
G1 X22.003 Y33.365 Z10.786 S2000 E3
G1 X21.160 Y33.902 Z10.806 S2000 E3
G1 X20.316 Y34.440 Z10.826 S2000 E3
G1 X19.446 Y34.930 Z10.846 S2000 E3
G1 X18.559 Y35.391 Z10.866 S2000 E3
G1 X17.672 Y35.853 Z10.886 S2000 E3
G1 X16.780 Y36.304 Z10.905 S2000 E3
G1 X15.856 Y36.687 Z10.925 S2000 E3
G1 X14.932 Y37.069 Z10.945 S2000 E3
G1 X14.008 Y37.452 Z10.965 S2000 E3
G1 X13.065 Y37.782 Z10.985 S2000 E3
G1 X12.111 Y38.083 Z11.005 S2000 E3
G1 X11.157 Y38.383 Z11.025 S2000 E3
G1 X10.200 Y38.671 Z11.045 S2000 E3
G1 X9.224 Y38.887 Z11.065 S2000 E3
G1 X8.248 Y39.104 Z11.085 S2000 E3
G1 X7.271 Y39.320 Z11.104 S2000 E3
G1 X6.285 Y39.479 Z11.124 S2000 E3
G1 X5.294 Y39.610 Z11.144 S2000 E3
G1 X4.302 Y39.740 Z11.164 S2000 E3
G1 X3.309 Y39.856 Z11.184 S2000 E3
G1 X2.310 Y39.899 Z11.204 S2000 E3
G1 X1.311 Y39.943 Z11.224 S2000 E3
G1 X0.312 Y39.986 Z11.244 S2000 E3
G1 X-0.687 Y39.970 Z11.264 S2000 E3
G1 X-1.686 Y39.926 Z11.284 S2000 E3
G1 X-2.685 Y39.883 Z11.303 S2000 E3
G1 X-3.682 Y39.822 Z11.323 S2000 E3
G1 X-4.674 Y39.691 Z11.343 S2000 E3
G1 X-5.665 Y39.561 Z11.363 S2000 E3
G1 X-6.657 Y39.430 Z11.383 S2000 E3
G1 X-7.637 Y39.239 Z11.403 S2000 E3
G1 X-8.614 Y39.023 Z11.423 S2000 E3
G1 X-9.590 Y38.806 Z11.443 S2000 E3
G1 X-10.561 Y38.571 Z11.463 S2000 E3
G1 X-11.515 Y38.271 Z11.483 S2000 E3
G1 X-12.469 Y37.970 Z11.502 S2000 E3
G1 X-13.423 Y37.669 Z11.522 S2000 E3
G1 X-14.354 Y37.309 Z11.542 S2000 E3
G1 X-15.278 Y36.926 Z11.562 S2000 E3
G1 X-16.202 Y36.543 Z11.582 S2000 E3
G1 X-17.117 Y36.142 Z11.602 S2000 E3
G1 X-18.004 Y35.680 Z11.622 S2000 E3
G1 X-18.891 Y35.218 Z11.642 S2000 E3
G1 X-19.778 Y34.756 Z11.662 S2000 E3
G1 X-20.633 Y34.238 Z11.682 S2000 E3
G1 X-21.476 Y33.701 Z11.701 S2000 E3
G1 X-22.319 Y33.163 Z11.721 S2000 E3
G1 X-23.150 Y32.608 Z11.741 S2000 E3
G1 X-23.943 Y31.999 Z11.761 S2000 E3
G1 X-24.736 Y31.390 Z11.781 S2000 E3
G1 X-25.530 Y30.781 Z11.801 S2000 E3
G1 X-26.280 Y30.121 Z11.821 S2000 E3
G1 X-27.017 Y29.445 Z11.841 S2000 E3
G1 X-27.754 Y28.770 Z11.861 S2000 E3
G1 X-28.474 Y28.077 Z11.881 S2000 E3
G1 X-29.150 Y27.340 Z11.900 S2000 E3
G1 X-29.825 Y26.602 Z11.920 S2000 E3
G1 X-30.501 Y25.865 Z11.940 S2000 E3
G1 X-31.124 Y25.083 Z11.960 S2000 E3
G1 X-31.732 Y24.290 Z11.980 S2000 E3
G1 X-32.341 Y23.497 Z12.000 S2000 E3
G1 X-32.928 Y22.688 Z12.020 S2000 E3
G1 X-33.466 Y21.845 Z12.040 S2000 E3
G1 X-34.003 Y21.002 Z12.060 S2000 E3
G1 X-34.540 Y20.158 Z12.080 S2000 E3
G1 X-35.016 Y19.279 Z12.100 S2000 E3
G1 X-35.478 Y18.392 Z12.119 S2000 E3
G1 X-35.940 Y17.505 Z12.139 S2000 E3
G1 X-36.376 Y16.606 Z12.159 S2000 E3
G1 X-36.759 Y15.683 Z12.179 S2000 E3
G1 X-37.141 Y14.759 Z12.199 S2000 E3
G1 X-37.524 Y13.835 Z12.219 S2000 E3
G1 X-37.838 Y12.886 Z12.239 S2000 E3
G1 X-38.139 Y11.932 Z12.259 S2000 E3
G1 X-38.440 Y10.979 Z12.279 S2000 E3
G1 X-38.711 Y10.017 Z12.299 S2000 E3
G1 X-38.928 Y9.041 Z12.318 S2000 E3
G1 X-39.144 Y8.065 Z12.338 S2000 E3
G1 X-39.361 Y7.088 Z12.358 S2000 E3
G1 X-39.504 Y6.099 Z12.378 S2000 E3
G1 X-39.634 Y5.108 Z12.398 S2000 E3
G1 X-39.765 Y4.116 Z12.418 S2000 E3
G1 X-39.864 Y3.122 Z12.438 S2000 E3
G1 X-39.907 Y2.123 Z12.458 S2000 E3
G1 X-39.951 Y1.124 Z12.478 S2000 E3
G1 X-39.995 Y0.125 Z12.498 S2000 E3
G1 X-39.962 Y-0.874 Z12.517 S2000 E3
G1 X-39.918 Y-1.873 Z12.537 S2000 E3
G1 X-39.875 Y-2.872 Z12.557 S2000 E3
G1 X-39.797 Y-3.868 Z12.577 S2000 E3
G1 X-39.667 Y-4.860 Z12.597 S2000 E3
G1 X-39.536 Y-5.851 Z12.617 S2000 E3
G1 X-39.406 Y-6.843 Z12.637 S2000 E3
G1 X-39.198 Y-7.821 Z12.657 S2000 E3
G1 X-38.982 Y-8.797 Z12.677 S2000 E3
G1 X-38.766 Y-9.773 Z12.697 S2000 E3
G1 X-38.515 Y-10.740 Z12.716 S2000 E3
G1 X-38.214 Y-11.694 Z12.736 S2000 E3
G1 X-37.913 Y-12.648 Z12.756 S2000 E3
G1 X-37.613 Y-13.601 Z12.776 S2000 E3
G1 X-37.237 Y-14.528 Z12.796 S2000 E3
G1 X-36.854 Y-15.452 Z12.816 S2000 E3
G1 X-36.472 Y-16.375 Z12.836 S2000 E3
G1 X-36.055 Y-17.284 Z12.856 S2000 E3
G1 X-35.593 Y-18.171 Z12.876 S2000 E3
G1 X-35.132 Y-19.058 Z12.896 S2000 E3
G1 X-34.670 Y-19.945 Z12.915 S2000 E3
G1 X-34.137 Y-20.791 Z12.935 S2000 E3
G1 X-33.600 Y-21.634 Z12.955 S2000 E3
G1 X-33.063 Y-22.477 Z12.975 S2000 E3
G1 X-32.493 Y-23.298 Z12.995 S2000 E3
G1 X-31.885 Y-24.092 Z13.015 S2000 E3
G1 X-31.276 Y-24.885 Z13.035 S2000 E3
G1 X-30.667 Y-25.678 Z13.055 S2000 E3
G1 X-29.994 Y-26.418 Z13.075 S2000 E3
G1 X-29.319 Y-27.155 Z13.095 S2000 E3
G1 X-28.643 Y-27.893 Z13.114 S2000 E3
G1 X-27.939 Y-28.601 Z13.134 S2000 E3
G1 X-27.201 Y-29.277 Z13.154 S2000 E3
G1 X-26.464 Y-29.952 Z13.174 S2000 E3
G1 X-25.727 Y-30.628 Z13.194 S2000 E3
G1 X-24.935 Y-31.238 Z13.214 S2000 E3
G1 X-24.141 Y-31.847 Z13.234 S2000 E3
G1 X-23.348 Y-32.455 Z13.254 S2000 E3
G1 X-22.530 Y-33.029 Z13.274 S2000 E3
G1 X-21.687 Y-33.566 Z13.294 S2000 E3
G1 X-20.843 Y-34.104 Z13.313 S2000 E3
G1 X-20.000 Y-34.641 Z13.333 S2000 E3
G1 X-19.113 Y-35.103 Z13.353 S2000 E3
G1 X-18.226 Y-35.565 Z13.373 S2000 E3
G1 X-17.339 Y-36.026 Z13.393 S2000 E3
G1 X-16.433 Y-36.448 Z13.413 S2000 E3
G1 X-15.509 Y-36.830 Z13.433 S2000 E3
G1 X-14.585 Y-37.213 Z13.453 S2000 E3
G1 X-13.661 Y-37.594 Z13.473 S2000 E3
G1 X-12.707 Y-37.895 Z13.493 S2000 E3
G1 X-11.754 Y-38.195 Z13.512 S2000 E3
G1 X-10.800 Y-38.496 Z13.532 S2000 E3
G1 X-9.834 Y-38.752 Z13.552 S2000 E3
G1 X-8.858 Y-38.968 Z13.572 S2000 E3
G1 X-7.882 Y-39.185 Z13.592 S2000 E3
G1 X-6.905 Y-39.398 Z13.612 S2000 E3
G1 X-5.913 Y-39.528 Z13.632 S2000 E3
G1 X-4.922 Y-39.659 Z13.652 S2000 E3
G1 X-3.930 Y-39.789 Z13.672 S2000 E3
G1 X-2.935 Y-39.872 Z13.692 S2000 E3
G1 X-1.936 Y-39.915 Z13.711 S2000 E3
G1 X-0.937 Y-39.959 Z13.731 S2000 E3
G1 X0.062 Y-39.997 Z13.751 S2000 E3
G1 X1.061 Y-39.954 Z13.771 S2000 E3
G1 X2.061 Y-39.910 Z13.791 S2000 E3
G1 X3.060 Y-39.866 Z13.811 S2000 E3
G1 X4.054 Y-39.773 Z13.831 S2000 E3
G1 X5.046 Y-39.642 Z13.851 S2000 E3
G1 X6.037 Y-39.512 Z13.871 S2000 E3
G1 X7.027 Y-39.374 Z13.891 S2000 E3
G1 X8.004 Y-39.158 Z13.910 S2000 E3
G1 X8.980 Y-38.941 Z13.930 S2000 E3
G1 X9.956 Y-38.725 Z13.950 S2000 E3
G1 X10.919 Y-38.458 Z13.970 S2000 E3
G1 X11.873 Y-38.158 Z13.990 S2000 E3
G1 X12.826 Y-37.857 Z14.010 S2000 E3
G1 X13.777 Y-37.548 Z14.030 S2000 E3
G1 X14.701 Y-37.165 Z14.050 S2000 E3
G1 X15.625 Y-36.782 Z14.070 S2000 E3
G1 X16.549 Y-36.400 Z14.090 S2000 E3
G1 X17.450 Y-35.969 Z14.109 S2000 E3
G1 X18.337 Y-35.507 Z14.129 S2000 E3
G1 X19.224 Y-35.045 Z14.149 S2000 E3
G1 X20.105 Y-34.574 Z14.169 S2000 E3
G1 X20.949 Y-34.037 Z14.189 S2000 E3
G1 X21.792 Y-33.499 Z14.209 S2000 E3
G1 X22.636 Y-32.962 Z14.229 S2000 E3
G1 X23.447 Y-32.379 Z14.249 S2000 E3
G1 X24.241 Y-31.771 Z14.269 S2000 E3
G1 X25.034 Y-31.162 Z14.289 S2000 E3
G1 X25.819 Y-30.543 Z14.308 S2000 E3
G1 X26.556 Y-29.868 Z14.328 S2000 E3
G1 X27.294 Y-29.192 Z14.348 S2000 E3
G1 X28.031 Y-28.517 Z14.368 S2000 E3
G1 X28.728 Y-27.800 Z14.388 S2000 E3
G1 X29.403 Y-27.063 Z14.408 S2000 E3
G1 X30.079 Y-26.326 Z14.428 S2000 E3
G1 X30.743 Y-25.579 Z14.448 S2000 E3
G1 X31.352 Y-24.786 Z14.468 S2000 E3
G1 X31.961 Y-23.993 Z14.488 S2000 E3
G1 X32.570 Y-23.199 Z14.507 S2000 E3
G1 X33.130 Y-22.372 Z14.527 S2000 E3
G1 X33.667 Y-21.529 Z14.547 S2000 E3
G1 X34.204 Y-20.685 Z14.567 S2000 E3
G1 X34.728 Y-19.834 Z14.587 S2000 E3
G1 X35.189 Y-18.947 Z14.607 S2000 E3
G1 X35.651 Y-18.060 Z14.627 S2000 E3
G1 X36.113 Y-17.173 Z14.647 S2000 E3
G1 X36.519 Y-16.260 Z14.667 S2000 E3
G1 X36.902 Y-15.336 Z14.687 S2000 E3
G1 X37.285 Y-14.412 Z14.706 S2000 E3
G1 X37.650 Y-13.482 Z14.726 S2000 E3
G1 X37.951 Y-12.528 Z14.746 S2000 E3
G1 X38.252 Y-11.575 Z14.766 S2000 E3
G1 X38.552 Y-10.621 Z14.786 S2000 E3
G1 X38.793 Y-9.651 Z14.806 S2000 E3
G1 X39.009 Y-8.675 Z14.826 S2000 E3
G1 X39.225 Y-7.698 Z14.846 S2000 E3
G1 X39.422 Y-6.719 Z14.866 S2000 E3
G1 X39.553 Y-5.727 Z14.886 S2000 E3
G1 X39.683 Y-4.736 Z14.905 S2000 E3
G1 X39.814 Y-3.744 Z14.925 S2000 E3
G1 X39.880 Y-2.747 Z14.945 S2000 E3
G1 X39.924 Y-1.748 Z14.965 S2000 E3
G1 X39.967 Y-0.749 Z14.985 S2000 E3
G1 X39.989 Y0.250 Z15.005 S2000 E3
G1 X39.945 Y1.249 Z15.025 S2000 E3
G1 X39.902 Y2.248 Z15.045 S2000 E3
G1 X39.858 Y3.247 Z15.065 S2000 E3
G1 X39.749 Y4.240 Z15.085 S2000 E3
G1 X39.618 Y5.232 Z15.104 S2000 E3
G1 X39.487 Y6.223 Z15.124 S2000 E3
G1 X39.334 Y7.210 Z15.144 S2000 E3
G1 X39.117 Y8.187 Z15.164 S2000 E3
G1 X38.901 Y9.163 Z15.184 S2000 E3
G1 X38.684 Y10.139 Z15.204 S2000 E3
G1 X38.402 Y11.098 Z15.224 S2000 E3
G1 X38.101 Y12.052 Z15.244 S2000 E3
G1 X37.801 Y13.005 Z15.264 S2000 E3
G1 X37.476 Y13.950 Z15.284 S2000 E3
G1 X37.093 Y14.874 Z15.303 S2000 E3
G1 X36.711 Y15.798 Z15.323 S2000 E3
G1 X36.328 Y16.722 Z15.343 S2000 E3
G1 X35.882 Y17.616 Z15.363 S2000 E3
G1 X35.420 Y18.503 Z15.383 S2000 E3
G1 X34.958 Y19.390 Z15.403 S2000 E3
G1 X34.473 Y20.264 Z15.423 S2000 E3
G1 X33.936 Y21.107 Z15.443 S2000 E3
G1 X33.399 Y21.950 Z15.463 S2000 E3
G1 X32.861 Y22.794 Z15.483 S2000 E3
G1 X32.265 Y23.596 Z15.502 S2000 E3
G1 X31.656 Y24.389 Z15.522 S2000 E3
G1 X31.048 Y25.183 Z15.542 S2000 E3
G1 X30.417 Y25.957 Z15.562 S2000 E3
G1 X29.741 Y26.695 Z15.582 S2000 E3
G1 X29.065 Y27.432 Z15.602 S2000 E3
G1 X28.390 Y28.169 Z15.622 S2000 E3
G1 X27.662 Y28.854 Z15.642 S2000 E3
G1 X26.925 Y29.530 Z15.662 S2000 E3
G1 X26.188 Y30.205 Z15.682 S2000 E3
G1 X25.431 Y30.857 Z15.701 S2000 E3
G1 X24.637 Y31.466 Z15.721 S2000 E3
G1 X23.844 Y32.075 Z15.741 S2000 E3
G1 X23.050 Y32.684 Z15.761 S2000 E3
G1 X22.214 Y33.231 Z15.781 S2000 E3
G1 X21.370 Y33.768 Z15.801 S2000 E3
G1 X20.527 Y34.305 Z15.821 S2000 E3
G1 X19.667 Y34.814 Z15.841 S2000 E3
G1 X18.780 Y35.276 Z15.861 S2000 E3
G1 X17.893 Y35.738 Z15.881 S2000 E3
G1 X17.006 Y36.199 Z15.900 S2000 E3
G1 X16.087 Y36.591 Z15.920 S2000 E3
G1 X15.163 Y36.974 Z15.940 S2000 E3
G1 X14.239 Y37.357 Z15.960 S2000 E3
G1 X13.303 Y37.707 Z15.980 S2000 E3
G1 X12.350 Y38.007 Z16.000 S2000 E3
G1 X11.396 Y38.308 Z16.020 S2000 E3
G1 X10.442 Y38.609 Z16.040 S2000 E3
G1 X9.468 Y38.833 Z16.060 S2000 E3
G1 X8.492 Y39.050 Z16.080 S2000 E3
G1 X7.515 Y39.266 Z16.100 S2000 E3
G1 X6.533 Y39.447 Z16.119 S2000 E3
G1 X5.541 Y39.577 Z16.139 S2000 E3
G1 X4.550 Y39.708 Z16.159 S2000 E3
G1 X3.559 Y39.838 Z16.179 S2000 E3
G1 X2.560 Y39.888 Z16.199 S2000 E3
G1 X1.561 Y39.932 Z16.219 S2000 E3
G1 X0.562 Y39.975 Z16.239 S2000 E3
G1 X-0.437 Y39.981 Z16.259 S2000 E3
G1 X-1.436 Y39.937 Z16.279 S2000 E3
G1 X-2.435 Y39.894 Z16.299 S2000 E3
G1 X-3.434 Y39.850 Z16.318 S2000 E3
G1 X-4.426 Y39.724 Z16.338 S2000 E3
G1 X-5.417 Y39.594 Z16.358 S2000 E3
G1 X-6.409 Y39.463 Z16.378 S2000 E3
G1 X-7.393 Y39.293 Z16.398 S2000 E3
G1 X-8.370 Y39.077 Z16.418 S2000 E3
G1 X-9.346 Y38.860 Z16.438 S2000 E3
G1 X-10.322 Y38.644 Z16.458 S2000 E3
G1 X-11.277 Y38.346 Z16.478 S2000 E3
G1 X-12.230 Y38.045 Z16.498 S2000 E3
G1 X-13.184 Y37.744 Z16.517 S2000 E3
G1 X-14.123 Y37.404 Z16.537 S2000 E3
G1 X-15.047 Y37.022 Z16.557 S2000 E3
G1 X-15.971 Y36.639 Z16.577 S2000 E3
G1 X-16.895 Y36.256 Z16.597 S2000 E3
G1 X-17.782 Y35.795 Z16.617 S2000 E3
G1 X-18.669 Y35.334 Z16.637 S2000 E3
G1 X-19.556 Y34.872 Z16.657 S2000 E3
G1 X-20.422 Y34.372 Z16.677 S2000 E3
G1 X-21.265 Y33.835 Z16.697 S2000 E3
G1 X-22.108 Y33.298 Z16.716 S2000 E3
G1 X-22.951 Y32.760 Z16.736 S2000 E3
G1 X-23.745 Y32.151 Z16.756 S2000 E3
G1 X-24.538 Y31.542 Z16.776 S2000 E3
G1 X-25.331 Y30.933 Z16.796 S2000 E3
G1 X-26.095 Y30.290 Z16.816 S2000 E3
G1 X-26.833 Y29.614 Z16.836 S2000 E3
G1 X-27.570 Y28.939 Z16.856 S2000 E3
G1 X-28.305 Y28.261 Z16.876 S2000 E3
G1 X-28.981 Y27.524 Z16.896 S2000 E3
G1 X-29.657 Y26.787 Z16.915 S2000 E3
G1 X-30.332 Y26.049 Z16.935 S2000 E3
G1 X-30.972 Y25.282 Z16.955 S2000 E3
G1 X-31.580 Y24.488 Z16.975 S2000 E3
G1 X-32.189 Y23.695 Z16.995 S2000 E3
G1 X-32.794 Y22.899 Z17.015 S2000 E3
G1 X-33.331 Y22.056 Z17.035 S2000 E3
G1 X-33.869 Y21.212 Z17.055 S2000 E3
G1 X-34.406 Y20.369 Z17.075 S2000 E3
G1 X-34.901 Y19.501 Z17.095 S2000 E3
G1 X-35.362 Y18.614 Z17.114 S2000 E3
G1 X-35.824 Y17.727 Z17.134 S2000 E3
G1 X-36.280 Y16.837 Z17.154 S2000 E3
G1 X-36.663 Y15.913 Z17.174 S2000 E3
G1 X-37.046 Y14.990 Z17.194 S2000 E3
G1 X-37.428 Y14.066 Z17.214 S2000 E3
G1 X-37.763 Y13.124 Z17.234 S2000 E3
G1 X-38.064 Y12.171 Z17.254 S2000 E3
G1 X-38.365 Y11.217 Z17.274 S2000 E3
G1 X-38.657 Y10.261 Z17.294 S2000 E3
G1 X-38.874 Y9.285 Z17.313 S2000 E3
G1 X-39.090 Y8.309 Z17.333 S2000 E3
G1 X-39.307 Y7.332 Z17.353 S2000 E3
G1 X-39.471 Y6.347 Z17.373 S2000 E3
G1 X-39.602 Y5.355 Z17.393 S2000 E3
G1 X-39.732 Y4.364 Z17.413 S2000 E3
G1 X-39.853 Y3.372 Z17.433 S2000 E3
G1 X-39.896 Y2.373 Z17.453 S2000 E3
G1 X-39.940 Y1.374 Z17.473 S2000 E3
G1 X-39.984 Y0.375 Z17.493 S2000 E3
G1 X-39.973 Y-0.624 Z17.512 S2000 E3
G1 X-39.929 Y-1.623 Z17.532 S2000 E3
G1 X-39.886 Y-2.622 Z17.552 S2000 E3
G1 X-39.830 Y-3.620 Z17.572 S2000 E3
G1 X-39.700 Y-4.612 Z17.592 S2000 E3
G1 X-39.569 Y-5.603 Z17.612 S2000 E3
G1 X-39.439 Y-6.595 Z17.632 S2000 E3
G1 X-39.253 Y-7.576 Z17.652 S2000 E3
G1 X-39.036 Y-8.553 Z17.672 S2000 E3
G1 X-38.820 Y-9.529 Z17.692 S2000 E3
G1 X-38.590 Y-10.502 Z17.711 S2000 E3
G1 X-38.289 Y-11.455 Z17.731 S2000 E3
G1 X-37.989 Y-12.409 Z17.751 S2000 E3
G1 X-37.688 Y-13.363 Z17.771 S2000 E3
G1 X-37.333 Y-14.297 Z17.791 S2000 E3
G1 X-36.950 Y-15.221 Z17.811 S2000 E3
G1 X-36.567 Y-16.144 Z17.831 S2000 E3
G1 X-36.171 Y-17.062 Z17.851 S2000 E3
G1 X-35.709 Y-17.949 Z17.871 S2000 E3
G1 X-35.247 Y-18.836 Z17.891 S2000 E3
G1 X-34.785 Y-19.723 Z17.910 S2000 E3
G1 X-34.272 Y-20.580 Z17.930 S2000 E3
G1 X-33.734 Y-21.423 Z17.950 S2000 E3
G1 X-33.197 Y-22.267 Z17.970 S2000 E3
G1 X-32.646 Y-23.100 Z17.990 S2000 E3
G1 X-32.037 Y-23.893 Z18.010 S2000 E3
G1 X-31.428 Y-24.687 Z18.030 S2000 E3
G1 X-30.819 Y-25.480 Z18.050 S2000 E3
G1 X-30.163 Y-26.234 Z18.070 S2000 E3
G1 X-29.488 Y-26.971 Z18.090 S2000 E3
G1 X-28.812 Y-27.708 Z18.109 S2000 E3
G1 X-28.123 Y-28.432 Z18.129 S2000 E3
G1 X-27.386 Y-29.108 Z18.149 S2000 E3
G1 X-26.648 Y-29.783 Z18.169 S2000 E3
G1 X-25.911 Y-30.459 Z18.189 S2000 E3
G1 X-25.133 Y-31.086 Z18.209 S2000 E3
G1 X-24.340 Y-31.694 Z18.229 S2000 E3
G1 X-23.546 Y-32.303 Z18.249 S2000 E3
G1 X-22.741 Y-32.895 Z18.269 S2000 E3
G1 X-21.898 Y-33.432 Z18.289 S2000 E3
G1 X-21.054 Y-33.969 Z18.308 S2000 E3
G1 X-20.211 Y-34.507 Z18.328 S2000 E3
G1 X-19.335 Y-34.987 Z18.348 S2000 E3
G1 X-18.448 Y-35.449 Z18.368 S2000 E3
G1 X-17.561 Y-35.911 Z18.388 S2000 E3
G1 X-16.664 Y-36.352 Z18.408 S2000 E3
G1 X-15.740 Y-36.735 Z18.428 S2000 E3
G1 X-14.816 Y-37.117 Z18.448 S2000 E3
G1 X-13.893 Y-37.500 Z18.468 S2000 E3
G1 X-12.946 Y-37.819 Z18.488 S2000 E3
G1 X-11.992 Y-38.120 Z18.507 S2000 E3
G1 X-11.038 Y-38.421 Z18.527 S2000 E3
G1 X-10.078 Y-38.698 Z18.547 S2000 E3
G1 X-9.102 Y-38.914 Z18.567 S2000 E3
G1 X-8.126 Y-39.131 Z18.587 S2000 E3
G1 X-7.149 Y-39.347 Z18.607 S2000 E3
G1 X-6.161 Y-39.496 Z18.627 S2000 E3
G1 X-5.170 Y-39.626 Z18.647 S2000 E3
G1 X-4.178 Y-39.757 Z18.667 S2000 E3
G1 X-3.184 Y-39.861 Z18.687 S2000 E3
G1 X-2.185 Y-39.905 Z18.706 S2000 E3
G1 X-1.186 Y-39.948 Z18.726 S2000 E3
G1 X-0.187 Y-39.992 Z18.746 S2000 E3
G1 X0.812 Y-39.965 Z18.766 S2000 E3
G1 X1.811 Y-39.921 Z18.786 S2000 E3
G1 X2.810 Y-39.877 Z18.806 S2000 E3
G1 X3.806 Y-39.806 Z18.826 S2000 E3
G1 X4.798 Y-39.675 Z18.846 S2000 E3
G1 X5.789 Y-39.545 Z18.866 S2000 E3
G1 X6.781 Y-39.414 Z18.886 S2000 E3
G1 X7.759 Y-39.212 Z18.905 S2000 E3
G1 X8.736 Y-38.996 Z18.925 S2000 E3
G1 X9.712 Y-38.779 Z18.945 S2000 E3
G1 X10.681 Y-38.534 Z18.965 S2000 E3
G1 X11.634 Y-38.233 Z18.985 S2000 E3
G1 X12.588 Y-37.932 Z19.005 S2000 E3
G1 X13.542 Y-37.632 Z19.025 S2000 E3
G1 X14.470 Y-37.261 Z19.045 S2000 E3
G1 X15.394 Y-36.878 Z19.065 S2000 E3
G1 X16.318 Y-36.495 Z19.085 S2000 E3
G1 X17.228 Y-36.084 Z19.104 S2000 E3
G1 X18.115 Y-35.622 Z19.124 S2000 E3
G1 X19.002 Y-35.160 Z19.144 S2000 E3
G1 X19.889 Y-34.699 Z19.164 S2000 E3
G1 X20.738 Y-34.171 Z19.184 S2000 E3
G1 X21.581 Y-33.634 Z19.204 S2000 E3
G1 X22.425 Y-33.096 Z19.224 S2000 E3
G1 X23.249 Y-32.531 Z19.244 S2000 E3
G1 X24.042 Y-31.923 Z19.264 S2000 E3
G1 X24.836 Y-31.314 Z19.284 S2000 E3
G1 X25.629 Y-30.705 Z19.303 S2000 E3
G1 X26.372 Y-30.037 Z19.323 S2000 E3
G1 X27.109 Y-29.361 Z19.343 S2000 E3
G1 X27.847 Y-28.685 Z19.363 S2000 E3
G1 X28.559 Y-27.985 Z19.383 S2000 E3
G1 X29.234 Y-27.247 Z19.403 S2000 E3
G1 X29.910 Y-26.510 Z19.423 S2000 E3
G1 X30.585 Y-25.773 Z19.443 S2000 E3
G1 X31.200 Y-24.984 Z19.463 S2000 E3
G1 X31.809 Y-24.191 Z19.483 S2000 E3
G1 X32.417 Y-23.398 Z19.502 S2000 E3
G1 X32.996 Y-22.583 Z19.522 S2000 E3
G1 X33.533 Y-21.739 Z19.542 S2000 E3
G1 X34.070 Y-20.896 Z19.562 S2000 E3
G1 X34.607 Y-20.053 Z19.582 S2000 E3
G1 X35.074 Y-19.168 Z19.602 S2000 E3
G1 X35.536 Y-18.281 Z19.622 S2000 E3
G1 X35.997 Y-17.394 Z19.642 S2000 E3
G1 X36.424 Y-16.491 Z19.662 S2000 E3
G1 X36.806 Y-15.567 Z19.682 S2000 E3
G1 X37.189 Y-14.643 Z19.701 S2000 E3
G1 X37.572 Y-13.719 Z19.721 S2000 E3
G1 X37.876 Y-12.767 Z19.741 S2000 E3
G1 X38.177 Y-11.813 Z19.761 S2000 E3
G1 X38.477 Y-10.859 Z19.781 S2000 E3
G1 X38.738 Y-9.895 Z19.801 S2000 E3
G1 X38.955 Y-8.919 Z19.821 S2000 E3
G1 X39.171 Y-7.943 Z19.841 S2000 E3
G1 X39.388 Y-6.966 Z19.861 S2000 E3
G1 X39.520 Y-5.975 Z19.881 S2000 E3
G1 X39.651 Y-4.984 Z19.900 S2000 E3
G1 X39.781 Y-3.992 Z19.920 S2000 E3
G1 X39.869 Y-2.997 Z19.940 S2000 E3
G1 X39.913 Y-1.998 Z19.960 S2000 E3
G1 X39.956 Y-0.999 Z19.980 S2000 E3
G1 X40.000 Y-0.000 Z20.000 S2000 E3

( Toolpath: rapid_to_approach )
G0 X50.000 Y0.000 Z150.000

( Toolpath: follow_circle )
G1 X0.000 Y-40.000 Z20.000 F800
G1 X3.921 Y-39.807
G1 X7.804 Y-39.231
G1 X11.611 Y-38.278
G1 X15.307 Y-36.955
G1 X18.856 Y-35.277
G1 X22.223 Y-33.259
G1 X25.376 Y-30.920
G1 X28.284 Y-28.284
G1 X30.920 Y-25.376
G1 X33.259 Y-22.223
G1 X35.277 Y-18.856
G1 X36.955 Y-15.307
G1 X38.278 Y-11.611
G1 X39.231 Y-7.804
G1 X39.807 Y-3.921
G1 X40.000 Y-0.000
G1 X39.807 Y3.921
G1 X39.231 Y7.804
G1 X38.278 Y11.611
G1 X36.955 Y15.307
G1 X35.277 Y18.856
G1 X33.259 Y22.223
G1 X30.920 Y25.376
G1 X28.284 Y28.284
G1 X25.376 Y30.920
G1 X22.223 Y33.259
G1 X18.856 Y35.277
G1 X15.307 Y36.955
G1 X11.611 Y38.278
G1 X7.804 Y39.231
G1 X3.921 Y39.807
G1 X0.000 Y40.000
G1 X-3.921 Y39.807
G1 X-7.804 Y39.231
G1 X-11.611 Y38.278
G1 X-15.307 Y36.955
G1 X-18.856 Y35.277
G1 X-22.223 Y33.259
G1 X-25.376 Y30.920
G1 X-28.284 Y28.284
G1 X-30.920 Y25.376
G1 X-33.259 Y22.223
G1 X-35.277 Y18.856
G1 X-36.955 Y15.307
G1 X-38.278 Y11.611
G1 X-39.231 Y7.804
G1 X-39.807 Y3.921
G1 X-40.000 Y0.000
G1 X-39.807 Y-3.921
G1 X-39.231 Y-7.804
G1 X-38.278 Y-11.611
G1 X-36.955 Y-15.307
G1 X-35.277 Y-18.856
G1 X-33.259 Y-22.223
G1 X-30.920 Y-25.376
G1 X-28.284 Y-28.284
G1 X-25.376 Y-30.920
G1 X-22.223 Y-33.259
G1 X-18.856 Y-35.277
G1 X-15.307 Y-36.955
G1 X-11.611 Y-38.278
G1 X-7.804 Y-39.231
G1 X-3.921 Y-39.807

( Toolpath: rapid_to_approach )
G0 X50.000 Y0.000 Z150.000

( Toolpath: rapid_to_home )
G0 X0.000 Y0.000 Z300.000

M5
G49
G28 G91 Z0
M30
%
